X: 5896
T: Camber Lasses, The
R: reel
M: 4/4
K: Amajor
cBAF EFAB|c2 (3Bcd cFFF|cBAF EFAB|c2 (3Bcd cAAA:|
f2 fa fecd|ecac cBBB|f2 fa fecd|eBBB cAAA|
f2 fa fecd|ecac cBBB|cefg agaf|ecBd cAAA|

